X: 508
T: Red Lion
R: Hornpipe
B: Fiddler's Fakebook
B: New England Fiddler's Repertoire
S: New England Fiddler's Repertoire
Z: Transcription, chords:Mike Long
M: 4/4
L: 1/8
K: Bb
F2|\
"Bb"BFdB fdbf | dBAc BAGF | "Eb"GEDE "Cm"CEcd | "F"ecdB BAGF ||\
"Bb"BFdB fdbf |
dBAc BAGF | "Eb"GEDE "Cm"CEcd | "F"ecAc "Bb"B2 :|\
|: FE |\
"Bb"DB,FD BFdB | fbfd BAGF |
"Gm"GBAc Bdga | "C"bg=eg "F"f2 (3(fga) ||\
"Bb"bfdB "Eb"gecA | "Cm"BGec "F"BAGF | "Eb"GEDE "Cm"CEcd | "F"ecAc "Bb"B2 :|
